X:1
T:The Gipsy Countess - Lethbridge
C:Sent by Lady Lethbridge
%%VWML:SBG-1-1-253-2
F:http://www.vwml.org/record/SBG/1/1/253
Z:Original Sibleius Transcriptio
L:1/4
M:4/4
I:linebreak $
K:F
C F G F/G/ | A G/A/ F z | C F G F/G/ | A G/A/ F3/2 E/ | D B/A/ G c/B/ | A F F z |$ C F G F/G/ | 
A G/A/ F3/2 E/ | D D B G/F/ | E/G/ C C D | C F G F/G/ |$ A G/A/ F3/2 E/ | D B/A/ G c/B/ | 
A F F D |"^Chorus" D F G F/G/ | A G/A/ F || 



